svg/user_male.svg

<svg xmlns="http://www.w3.org/2000/svg" viewBox="0 0 32 32" enable-background="new 0 0 32 32"><path d="M 18 4 C 14.334201 4 11.55387 4.8617415 9.6875 6.625 C 7.8211295 8.3882585 7 10.957531 7 14 L 7 14.90625 C 6.4276098 15.450747 6 16.148819 6 17 C 6 18.259707 6.8910537 19.154489 8 19.59375 C 8.3692613 20.761161 8.7732544 21.986611 9.21875 23.03125 C 9.7053304 24.172229 10.144451 25.078327 10.75 25.71875 C 13.619758 28.755021 18.380242 28.755021 21.25 25.71875 C 21.855549 25.078327 22.26342 24.172229 22.75 23.03125 C 23.195595 21.986377 23.630686 20.761406 24 19.59375 C 25.10937 19.154508 26 18.259707 26 17 C 26 16.153656 25.571 15.452514 25 14.90625 L 25 14 C 25 11.175936 24.356549 9.1655084 23.21875 7.84375 C 22.25437 6.7234492 20.964503 6.265469 19.6875 6.125 L 18.90625 4.5625 L 18.625 4 L 18 4 z M 17.40625 6.0625 L 18.09375 7.4375 C 18.427489 8.1040777 18.556731 8.5783608 18.5625 8.78125 C 18.5683 8.9841392 18.57463 8.9009876 18.53125 8.9375 C 18.4445 9.010525 17.603383 9.2284186 16.5625 9.28125 C 15.521617 9.3340814 14.297738 9.308464 13.15625 9.75 C 12.014762 10.191536 11.013063 11.377418 11 13 L 13 13 C 13.0079 12.014082 13.236613 11.871933 13.875 11.625 C 14.513387 11.378067 15.612883 11.304544 16.6875 11.25 C 17.762117 11.19546 18.871378 11.26094 19.8125 10.46875 C 20.283061 10.072653 20.581559 9.3889819 20.5625 8.71875 C 20.558322 8.5718145 20.524062 8.4298071 20.5 8.28125 C 20.93419 8.4655836 21.335005 8.746764 21.6875 9.15625 C 22.412951 9.9989916 23 11.482064 23 14 L 23 15.28125 L 23 15.84375 L 23.5 16.125 C 23.803899 16.300541 24 16.619774 24 17 C 24 17.533588 23.6179 17.957171 23.09375 18 L 22.40625 18.03125 L 22.21875 18.6875 C 21.848872 19.8907 21.38817 21.161979 20.9375 22.21875 C 20.48683 23.275521 19.970951 24.176173 19.8125 24.34375 C 17.684258 26.595479 14.315742 26.595479 12.1875 24.34375 C 12.029049 24.176173 11.51317 23.275521 11.0625 22.21875 C 10.61183 21.161979 10.151128 19.8907 9.78125 18.6875 L 9.59375 18.03125 L 8.90625 18 C 8.3835397 17.957247 8 17.533588 8 17 C 8 16.626072 8.1931792 16.302229 8.5 16.125 L 9 15.84375 L 9 15.28125 L 9 14 C 9 11.303469 9.6843705 9.3644915 11.0625 8.0625 C 12.344007 6.8517932 14.433112 6.1621515 17.40625 6.0625 z M 13 16 C 12.447715 16 12 16.447715 12 17 C 12 17.552285 12.447715 18 13 18 C 13.552285 18 14 17.552285 14 17 C 14 16.447715 13.552285 16 13 16 z M 19 16 C 18.447715 16 18 16.447715 18 17 C 18 17.552285 18.447715 18 19 18 C 19.552285 18 20 17.552285 20 17 C 20 16.447715 19.552285 16 19 16 z" color="#000" overflow="visible" enable-background="accumulate"/></svg>

<svg xmlns="http://www.w3.org/2000/svg" viewBox="0 0 32 32"><path style="text-indent:0;text-align:start;line-height:normal;text-transform:none;block-progression:tb;-inkscape-font-specification:Bitstream Vera Sans" d="M18 4c-3.666 0-6.446.862-8.313 2.625C7.822 8.388 7 10.958 7 14v.906C6.428 15.45 6 16.15 6 17c0 1.26.89 2.154 2 2.594.37 1.167.773 2.393 1.22 3.437.485 1.142.924 2.048 1.53 2.69 2.87 3.035 7.63 3.035 10.5 0 .606-.642 1.013-1.548 1.5-2.69.446-1.044.88-2.27 1.25-3.436 1.11-.44 2-1.334 2-2.594 0-.846-.43-1.547-1-2.094V14c0-2.824-.643-4.834-1.78-6.156-.966-1.12-2.255-1.58-3.532-1.72l-.782-1.56-.28-.564H18zm-.594 2.063l.688 1.375c.333.666.463 1.14.468 1.343.006.204.013.12-.03.158-.087.073-.93.29-1.97.343-1.04.054-2.264.028-3.406.47-1.14.442-2.143 1.627-2.156 3.25h2c.008-.986.237-1.128.875-1.375.638-.247 1.738-.32 2.813-.375 1.074-.055 2.183.01 3.125-.78.47-.397.77-1.08.75-1.75-.005-.148-.04-.29-.063-.44.434.186.835.467 1.188.876C22.413 10 23 11.482 23 14V15.844l.5.28c.304.177.5.496.5.876 0 .534-.382.957-.906 1l-.688.03-.187.657c-.37 1.204-.832 2.475-1.282 3.532-.45 1.056-.967 1.956-1.125 2.124-2.13 2.25-5.497 2.25-7.625 0-.16-.168-.675-1.068-1.126-2.125-.45-1.058-.91-2.33-1.28-3.532l-.188-.657-.688-.03C8.384 17.957 8 17.534 8 17c0-.374.193-.698.5-.875l.5-.28V14c0-2.697.684-4.636 2.063-5.938 1.28-1.21 3.37-1.9 6.343-2zM13 16c-.552 0-1 .448-1 1s.448 1 1 1 1-.448 1-1-.448-1-1-1zm6 0c-.552 0-1 .448-1 1s.448 1 1 1 1-.448 1-1-.448-1-1-1z" color="#000" overflow="visible" font-family="Bitstream Vera Sans"/></svg>
